src/img/icon--shield.svg

<svg width="226" height="315" viewBox="0 0 226 315" fill="none" xmlns="http://www.w3.org/2000/svg">
<path d="M10.853 43.4328H0V141.213H10.853V43.4328Z" fill="#DEDEDE"/>
<path d="M293.147 141.213H304V43.4328H293.147V141.213Z" fill="#DEDEDE"/>
<path d="M282.294 162.929H293.147V141.213H282.294V162.929Z" fill="#DEDEDE"/>
<path d="M271.44 184.646H282.294V162.929H271.44V184.646Z" fill="#DEDEDE"/>
<path d="M293.147 43.4328V32.5748H271.44V43.4328H293.147Z" fill="#DEDEDE"/>
<path d="M260.587 206.362H271.44V184.646H260.587V206.362Z" fill="#DEDEDE"/>
<path d="M249.734 228.134H260.587V206.362H249.734V228.134Z" fill="#DEDEDE"/>
<path d="M238.881 54.2912V43.4328H206.266V32.5748H97.7339V43.4328H65.1192V54.2912H32.5596V141.213H43.4126V119.496H119.441V108.638H130.294V97.7795H141.147V43.4328H162.853V97.7795H173.706V108.638H184.559V119.496H260.587V141.213H271.44V54.2912H238.881ZM249.734 108.638H238.881V65.1496H249.734V108.638Z" fill="#DEDEDE"/>
<path d="M238.881 249.85H249.734V228.134H238.881V249.85Z" fill="#DEDEDE"/>
<path d="M184.559 141.213V152.071H173.706V162.929H162.853V271.567H141.147V162.929H130.294V152.071H119.441V141.213H43.4126V162.929H54.2659V184.646H65.1192V206.362H75.9722V228.134H86.8809V249.85H97.7339V260.709H108.587V271.567H119.441V282.425H184.559V271.567H195.413V260.709H206.266V249.85H217.174V228.134H228.028V206.362H238.881V184.646H249.734V162.929H260.587V141.213H184.559ZM228.028 184.646H217.174V217.22H206.266V238.992H195.413V217.22H206.266V184.646H217.174V162.929H228.028V184.646Z" fill="#DEDEDE"/>
<path d="M271.44 32.5748V21.7164H238.881V32.5748H271.44Z" fill="#DEDEDE"/>
<path d="M238.881 249.85H228.028V260.709H238.881V249.85Z" fill="#DEDEDE"/>
<path d="M228.028 260.709H217.174V271.567H228.028V260.709Z" fill="#DEDEDE"/>
<path d="M217.174 271.567H206.266V282.425H217.174V271.567Z" fill="#DEDEDE"/>
<path d="M238.881 21.7164V10.8584H206.266V21.7164H238.881Z" fill="#DEDEDE"/>
<path d="M206.266 282.425H195.413V293.284H206.266V282.425Z" fill="#DEDEDE"/>
<path d="M173.706 293.284V304.142H195.413V293.284H173.706Z" fill="#DEDEDE"/>
<path d="M130.294 304.142V315H173.706V304.142H130.294Z" fill="#DEDEDE"/>
<path d="M141.147 119.496V141.213H162.853V119.496H141.147Z" fill="#DEDEDE"/>
<path d="M108.587 293.284V304.142H130.294V293.284H108.587Z" fill="#DEDEDE"/>
<path d="M206.266 10.8584V0H97.7339V10.8584H206.266Z" fill="#DEDEDE"/>
<path d="M108.587 282.425H97.7339V293.284H108.587V282.425Z" fill="#DEDEDE"/>
<path d="M97.7339 271.567H86.8809V282.425H97.7339V271.567Z" fill="#DEDEDE"/>
<path d="M86.8809 260.709H75.9722V271.567H86.8809V260.709Z" fill="#DEDEDE"/>
<path d="M97.7339 21.7164V10.8584H65.1192V21.7164H97.7339Z" fill="#DEDEDE"/>
<path d="M75.9722 249.85H65.1192V260.709H75.9722V249.85Z" fill="#DEDEDE"/>
<path d="M65.1192 228.134H54.2659V249.85H65.1192V228.134Z" fill="#DEDEDE"/>
<path d="M54.2659 206.362H43.4126V228.134H54.2659V206.362Z" fill="#DEDEDE"/>
<path d="M65.1192 32.5748V21.7164H32.5596V32.5748H65.1192Z" fill="#DEDEDE"/>
<path d="M43.4126 184.646H32.5596V206.362H43.4126V184.646Z" fill="#DEDEDE"/>
<path d="M32.5596 162.929H21.7063V184.646H32.5596V162.929Z" fill="#DEDEDE"/>
<path d="M32.5596 43.4328V32.5748H10.853V43.4328H32.5596Z" fill="#DEDEDE"/>
<path d="M21.7063 141.213H10.853V162.929H21.7063V141.213Z" fill="#DEDEDE"/>
</svg>

<svg width="226" height="315" fill="none" xmlns="http://www.w3.org/2000/svg"><path d="M10.853 43.433H0v97.78h10.853v-97.78ZM293.147 141.213H304v-97.78h-10.853v97.78ZM282.294 162.929h10.853v-21.716h-10.853v21.716ZM271.44 184.646h10.854v-21.717H271.44v21.717ZM293.147 43.433V32.575H271.44v10.858h21.707ZM260.587 206.362h10.853v-21.716h-10.853v21.716ZM249.734 228.134h10.853v-21.772h-10.853v21.772ZM238.881 54.291V43.433h-32.615V32.575H97.734v10.858H65.119V54.29H32.56v86.922h10.854v-21.717h76.028v-10.858h10.853V97.779h10.853V43.434h21.706v54.346h10.853v10.859h10.853v10.858h76.028v21.717h10.853V54.291h-32.559Zm10.853 54.347h-10.853V65.15h10.853v43.488ZM238.881 249.85h10.853v-21.716h-10.853v21.716Z" fill="#DEDEDE"/><path d="M184.559 141.213v10.858h-10.853v10.858h-10.853v108.638h-21.706V162.929h-10.853v-10.858h-10.853v-10.858H43.413v21.716h10.853v21.717h10.853v21.716h10.853v21.772h10.909v21.716h10.853v10.859h10.853v10.858h10.854v10.858h65.118v-10.858h10.854v-10.858h10.853V249.85h10.908v-21.716h10.854v-21.772h10.853v-21.716h10.853v-21.717h10.853v-21.716h-76.028Zm43.469 43.433h-10.854v32.574h-10.908v21.772h-10.853V217.22h10.853v-32.574h10.908v-21.717h10.854v21.717ZM271.44 32.575V21.716h-32.559v10.859h32.559ZM238.881 249.85h-10.853v10.859h10.853V249.85ZM228.028 260.709h-10.854v10.858h10.854v-10.858Z" fill="#DEDEDE"/><path d="M217.174 271.567h-10.908v10.858h10.908v-10.858ZM238.881 21.716V10.858h-32.615v10.858h32.615ZM206.266 282.425h-10.853v10.859h10.853v-10.859ZM173.706 293.284v10.858h21.707v-10.858h-21.707ZM130.294 304.142V315h43.412v-10.858h-43.412ZM141.147 119.496v21.717h21.706v-21.717h-21.706ZM108.587 293.284v10.858h21.707v-10.858h-21.707ZM206.266 10.858V0H97.734v10.858h108.532ZM108.587 282.425H97.734v10.859h10.853v-10.859ZM97.734 271.567H86.88v10.858h10.853v-10.858ZM86.88 260.709H75.973v10.858h10.909v-10.858ZM97.734 21.716V10.858H65.119v10.858h32.615ZM75.972 249.85H65.12v10.859h10.853V249.85ZM65.12 228.134H54.265v21.716h10.853v-21.716ZM54.266 206.362H43.413v21.772h10.853v-21.772ZM65.12 32.575V21.716H32.56v10.859h32.56ZM43.413 184.646H32.56v21.716h10.853v-21.716ZM32.56 162.929H21.706v21.717H32.56v-21.717ZM32.56 43.433V32.575H10.853v10.858H32.56ZM21.706 141.213H10.853v21.716h10.853v-21.716Z" fill="#DEDEDE"/></svg>
